markup/images/icon36.svg

<svg xmlns="http://www.w3.org/2000/svg" width="37" height="42"><path fill-rule="evenodd" fill="#FFF" d="M34.311 19.618a2.692 2.692 0 0 0-2.54 1.809l-4.796-6.404a7.678 7.678 0 0 0-4.527-2.888 6.788 6.788 0 0 0 2.598-5.339l-.002-.091a1.935 1.935 0 0 0 1.123-1.753 1.935 1.935 0 0 0-1.934-1.934h-.335A6.836 6.836 0 0 0 18.249 0a6.838 6.838 0 0 0-5.65 3.018h-.335a1.936 1.936 0 0 0-1.934 1.934c0 .776.461 1.445 1.123 1.753l-.002.091a6.788 6.788 0 0 0 2.642 5.373 7.664 7.664 0 0 0-1.67.604 7.677 7.677 0 0 0-2.695 2.25l-1.166 1.558-.667-.578a2.694 2.694 0 0 0 1.41-3.211 2.693 2.693 0 0 0-3.358-1.784c-.686.21-1.25.675-1.587 1.309a2.692 2.692 0 0 0 .206 2.853c-.488.19-.93.513-1.265.962a2.875 2.875 0 0 0-.509 2.369 2.69 2.69 0 0 0-2.674 3.471 2.693 2.693 0 0 0 3.357 1.785 2.692 2.692 0 0 0 1.894-2.367l2.007 1.613.016.013a2.865 2.865 0 0 0 2.14.547 2.864 2.864 0 0 0 1.9-1.126l.28-.374V39.04c0 1.576 1.256 2.903 2.798 2.957.796.029 1.55-.26 2.122-.811a2.88 2.88 0 0 0 .888-2.091v-7.819l.001-.01-.001-.009v-1.89c0-.457.339-.838.772-.867a.82.82 0 0 1 .647.241.826.826 0 0 1 .244.587v9.716c0 1.602 1.28 2.927 2.854 2.955h.048c.776 0 1.505-.301 2.056-.851.548-.549.85-1.278.85-2.053V22.063l2.763 3.688a2.692 2.692 0 0 0-2.224 2.647 2.69 2.69 0 0 0 2.688 2.688 2.69 2.69 0 0 0 2.689-2.688c0-.429-.102-.835-.282-1.196a2.86 2.86 0 0 0 2.534-2.468A2.691 2.691 0 0 0 37 22.306a2.691 2.691 0 0 0-2.689-2.688zM18.249 1.226c1.56 0 3.045.667 4.09 1.792h-8.181a5.605 5.605 0 0 1 4.091-1.792zM12.68 6.885h8.65a.612.612 0 1 0 0-1.226h-9.066a.709.709 0 0 1 0-1.415h11.969a.708.708 0 0 1 0 1.415h-.922a.612.612 0 1 0 0 1.226h.506a5.575 5.575 0 0 1-5.569 5.482 5.576 5.576 0 0 1-5.568-5.482zm7.365 6.465v.888c0 .99-.806 1.796-1.796 1.796a1.798 1.798 0 0 1-1.796-1.796v-.888a6.776 6.776 0 0 0 3.592 0zm-14.602-.458a1.452 1.452 0 0 1 1.29-.776 1.463 1.463 0 1 1-1.29.776zm-2.326 9.692a1.463 1.463 0 1 1-.429-2.86 1.462 1.462 0 0 1 .429 2.86zm7.334-.882a1.65 1.65 0 0 1-1.093.648 1.65 1.65 0 0 1-1.223-.309l-3.499-2.813-.017-.013a1.666 1.666 0 0 1-.672-1.345 1.68 1.68 0 0 1 2.668-1.353l1.43 1.238v1.344a.613.613 0 0 0 1.227 0V17.68l.329-.441 1.974 2.962-1.124 1.501zm13.314 17.393a1.677 1.677 0 0 1-1.708 1.678c-.908-.016-1.648-.792-1.648-1.729v-7.165h3.356v7.216zm4.453-9.235a1.463 1.463 0 0 1-1.462-1.462 1.463 1.463 0 0 1 2.924 0c0 .807-.655 1.462-1.462 1.462zm3.142-4.24a1.66 1.66 0 0 1-1.262.36 1.665 1.665 0 0 1-1.135-.659l-3.776-5.041 1.519-1.519a.612.612 0 1 0-.867-.867l-.848.848v-.492a.613.613 0 0 0-1.226 0v1.966l-.001.006v4.583h-.83a.614.614 0 0 0 0 1.227h.83v4.621h-3.355v-1.325a2.06 2.06 0 0 0-2.201-2.052c-1.073.073-1.914.991-1.914 2.091v1.286h-1.756a.614.614 0 0 0 0 1.226h1.756v7.216c0 .46-.183.889-.514 1.208-.33.318-.766.485-1.226.468-.891-.031-1.616-.808-1.616-1.731V26.032h7.637a.614.614 0 1 0 0-1.227h-7.637v-4.379l1.403-1.872a.614.614 0 0 0-.981-.736l-1.005 1.342-1.974-2.963.328-.439a6.461 6.461 0 0 1 2.263-1.889 6.448 6.448 0 0 1 2.254-.647v1.016a3.026 3.026 0 0 0 3.022 3.022 3.026 3.026 0 0 0 3.023-3.022v-1.033a6.443 6.443 0 0 1 4.722 2.553l5.623 7.508c.554.739.439 1.795-.256 2.354zm2.951-1.852a1.464 1.464 0 0 1-1.462-1.462c0-.806.656-1.462 1.462-1.462.807 0 1.463.656 1.463 1.462 0 .806-.656 1.462-1.463 1.462z"/></svg>

<svg 
 xmlns="http://www.w3.org/2000/svg"
 xmlns:xlink="http://www.w3.org/1999/xlink"
 width="37px" height="42px">
<path fill-rule="evenodd"  fill="rgb(255, 255, 255)"
 d="M34.311,19.618 C33.137,19.618 32.136,20.375 31.771,21.427 L26.975,15.023 C25.862,13.538 24.237,12.518 22.448,12.135 C24.028,10.889 25.046,8.960 25.046,6.796 C25.046,6.765 25.044,6.735 25.044,6.705 C25.706,6.397 26.167,5.728 26.167,4.952 C26.167,3.885 25.300,3.018 24.233,3.018 L23.898,3.018 C22.643,1.148 20.511,-0.000 18.249,-0.000 C15.987,-0.000 13.854,1.148 12.599,3.018 L12.264,3.018 C11.198,3.018 10.330,3.885 10.330,4.952 C10.330,5.728 10.791,6.397 11.453,6.705 C11.453,6.735 11.451,6.765 11.451,6.796 C11.451,8.980 12.488,10.925 14.093,12.169 C13.515,12.305 12.953,12.508 12.423,12.773 C11.367,13.301 10.436,14.079 9.728,15.023 L8.562,16.581 L7.895,16.003 C9.074,15.439 9.698,14.079 9.305,12.792 C8.871,11.375 7.365,10.575 5.947,11.008 C5.261,11.218 4.697,11.683 4.360,12.317 C4.023,12.951 3.953,13.678 4.163,14.365 C4.253,14.658 4.389,14.929 4.566,15.170 C4.078,15.360 3.636,15.683 3.301,16.132 C2.921,16.638 2.721,17.240 2.721,17.870 C2.721,18.084 2.746,18.295 2.792,18.501 C2.499,18.489 2.199,18.525 1.903,18.616 C0.485,19.049 -0.315,20.555 0.118,21.972 C0.472,23.129 1.539,23.875 2.691,23.875 C2.950,23.875 3.214,23.836 3.475,23.757 C4.563,23.424 5.286,22.461 5.369,21.390 L7.376,23.003 C7.381,23.008 7.386,23.012 7.392,23.016 C8.009,23.478 8.769,23.673 9.532,23.563 C10.296,23.454 10.971,23.053 11.432,22.437 L11.712,22.063 L11.712,39.040 C11.712,40.616 12.968,41.943 14.510,41.997 C15.306,42.026 16.060,41.737 16.632,41.186 C17.205,40.633 17.520,39.891 17.520,39.095 L17.520,31.276 C17.520,31.272 17.521,31.269 17.521,31.266 C17.521,31.263 17.520,31.260 17.520,31.257 L17.520,29.367 C17.520,28.910 17.859,28.529 18.292,28.500 C18.537,28.483 18.766,28.568 18.939,28.741 C19.096,28.898 19.183,29.107 19.183,29.328 L19.183,39.044 C19.183,40.646 20.463,41.971 22.037,41.999 C22.053,41.999 22.069,41.999 22.085,41.999 C22.861,41.999 23.590,41.698 24.141,41.148 C24.689,40.599 24.991,39.870 24.991,39.095 L24.991,22.063 L27.754,25.751 C26.492,25.972 25.530,27.075 25.530,28.398 C25.530,29.881 26.736,31.086 28.218,31.086 C29.701,31.086 30.907,29.881 30.907,28.398 C30.907,27.969 30.805,27.563 30.625,27.202 C31.171,27.143 31.690,26.930 32.129,26.575 C32.711,26.107 33.060,25.440 33.159,24.734 C33.508,24.901 33.899,24.994 34.311,24.994 C35.794,24.994 37.000,23.788 37.000,22.306 C37.000,20.824 35.794,19.618 34.311,19.618 ZM18.249,1.226 C19.809,1.226 21.294,1.893 22.339,3.018 L14.158,3.018 C15.203,1.893 16.688,1.226 18.249,1.226 ZM12.680,6.885 L21.330,6.885 C21.669,6.885 21.943,6.611 21.943,6.272 C21.943,5.933 21.669,5.659 21.330,5.659 L12.264,5.659 C11.874,5.659 11.556,5.342 11.556,4.951 C11.556,4.561 11.874,4.244 12.264,4.244 L24.233,4.244 C24.623,4.244 24.941,4.561 24.941,4.951 C24.941,5.342 24.623,5.659 24.233,5.659 L23.311,5.659 C22.972,5.659 22.698,5.933 22.698,6.272 C22.698,6.611 22.972,6.885 23.311,6.885 L23.817,6.885 C23.770,9.916 21.291,12.367 18.248,12.367 C15.206,12.367 12.728,9.916 12.680,6.885 ZM20.045,13.350 L20.045,14.238 C20.045,15.228 19.239,16.034 18.249,16.034 C17.258,16.034 16.453,15.228 16.453,14.238 L16.453,13.350 C17.025,13.507 17.627,13.593 18.249,13.593 C18.870,13.593 19.472,13.507 20.045,13.350 ZM5.443,12.892 C5.626,12.547 5.932,12.295 6.306,12.180 C6.448,12.137 6.591,12.116 6.733,12.116 C7.359,12.116 7.939,12.522 8.132,13.151 C8.368,13.922 7.932,14.741 7.161,14.976 C6.788,15.091 6.392,15.053 6.047,14.869 C5.702,14.686 5.450,14.379 5.336,14.006 C5.221,13.633 5.259,13.237 5.443,12.892 ZM3.117,22.584 C2.346,22.820 1.526,22.385 1.291,21.614 C1.055,20.843 1.490,20.024 2.261,19.788 C2.403,19.745 2.547,19.724 2.688,19.724 C3.314,19.724 3.895,20.130 4.087,20.759 C4.323,21.530 3.888,22.348 3.117,22.584 ZM10.451,21.702 C10.185,22.057 9.797,22.287 9.358,22.350 C8.922,22.412 8.489,22.303 8.135,22.041 L4.636,19.228 C4.630,19.224 4.625,19.219 4.619,19.215 C4.192,18.895 3.947,18.405 3.947,17.870 C3.947,17.506 4.063,17.159 4.282,16.866 C4.832,16.131 5.875,15.977 6.615,16.517 L8.045,17.755 L8.045,19.099 C8.045,19.438 8.320,19.712 8.658,19.712 C8.997,19.712 9.272,19.438 9.272,19.099 L9.272,17.680 L9.601,17.239 L11.575,20.201 L10.451,21.702 ZM23.765,39.095 C23.765,39.543 23.590,39.964 23.274,40.281 C22.949,40.605 22.515,40.780 22.057,40.773 C21.149,40.757 20.409,39.981 20.409,39.044 L20.409,31.879 L23.765,31.879 L23.765,39.095 ZM28.218,29.860 C27.412,29.860 26.756,29.205 26.756,28.398 C26.756,27.592 27.412,26.937 28.218,26.937 C29.025,26.937 29.680,27.592 29.680,28.398 C29.680,29.205 29.025,29.860 28.218,29.860 ZM31.360,25.620 C31.001,25.910 30.554,26.037 30.098,25.980 C29.642,25.923 29.239,25.689 28.963,25.321 L25.187,20.280 L26.706,18.761 C26.946,18.521 26.946,18.133 26.706,17.894 C26.467,17.654 26.079,17.654 25.839,17.894 L24.991,18.742 L24.991,18.250 C24.991,17.912 24.717,17.637 24.378,17.637 C24.039,17.637 23.765,17.912 23.765,18.250 L23.765,20.216 C23.765,20.218 23.764,20.220 23.764,20.222 L23.764,24.805 L22.934,24.805 C22.595,24.805 22.320,25.080 22.320,25.419 C22.320,25.757 22.595,26.032 22.934,26.032 L23.764,26.032 L23.764,30.653 L20.409,30.653 L20.409,29.328 C20.409,28.779 20.195,28.263 19.806,27.874 C19.385,27.453 18.802,27.235 18.208,27.276 C17.135,27.349 16.294,28.267 16.294,29.367 L16.294,30.653 L14.538,30.653 C14.200,30.653 13.925,30.928 13.925,31.266 C13.925,31.605 14.200,31.879 14.538,31.879 L16.294,31.879 L16.294,39.095 C16.294,39.555 16.111,39.984 15.780,40.303 C15.450,40.621 15.014,40.788 14.554,40.771 C13.663,40.740 12.938,39.963 12.938,39.040 L12.938,26.032 L20.575,26.032 C20.914,26.032 21.189,25.757 21.189,25.419 C21.189,25.080 20.914,24.805 20.575,24.805 L12.938,24.805 L12.938,20.426 L14.341,18.554 C14.544,18.283 14.489,17.898 14.218,17.695 C13.947,17.492 13.563,17.547 13.360,17.818 L12.355,19.160 L10.381,16.197 L10.709,15.758 C11.303,14.966 12.086,14.313 12.972,13.869 C13.674,13.518 14.443,13.298 15.226,13.222 L15.226,14.238 C15.226,15.904 16.582,17.260 18.248,17.260 C19.915,17.260 21.271,15.904 21.271,14.238 L21.271,13.205 C23.128,13.325 24.871,14.260 25.993,15.758 L31.616,23.266 C32.170,24.005 32.055,25.061 31.360,25.620 ZM34.311,23.768 C33.505,23.768 32.849,23.112 32.849,22.306 C32.849,21.500 33.505,20.844 34.311,20.844 C35.118,20.844 35.774,21.500 35.774,22.306 C35.774,23.112 35.118,23.768 34.311,23.768 Z"/>
</svg>
